src/assets/img/icons/duotone-icons/Clothes/Shirt.svg

<?xml version="1.0" encoding="UTF-8"?>
<svg width="24px" height="24px" viewBox="0 0 24 24" version="1.1" xmlns="http://www.w3.org/2000/svg" xmlns:xlink="http://www.w3.org/1999/xlink">
    <!-- Generator: Sketch 52.2 (67145) - http://www.bohemiancoding.com/sketch -->
    <title>Stockholm-icons / Clothes / Shirt</title>
    <desc>Created with Sketch.</desc>
    <g id="Stockholm-icons-/-Clothes-/-Shirt" stroke="none" stroke-width="1" fill="none" fill-rule="evenodd">
        <rect id="bound" x="0" y="0" width="24" height="24"></rect>
        <path d="M6.182345,4.09500888 C6.73256296,3.42637697 7.56648864,3 8.5,3 L15.5,3 C16.4330994,3 17.266701,3.42600075 17.8169264,4.09412386 C17.8385143,4.10460774 17.8598828,4.11593789 17.8809917,4.1281251 L22.5900048,6.8468751 C23.0682974,7.12301748 23.2321726,7.73460788 22.9560302,8.21290051 L21.2997802,11.0816097 C21.0236378,11.5599023 20.4120474,11.7237774 19.9337548,11.4476351 L18.5,10.6198563 L18.5,19 C18.5,19.5522847 18.0522847,20 17.5,20 L6.5,20 C5.94771525,20 5.5,19.5522847 5.5,19 L5.5,10.6204852 L4.0673344,11.4476351 C3.58904177,11.7237774 2.97745137,11.5599023 2.70130899,11.0816097 L1.04505899,8.21290051 C0.768916618,7.73460788 0.932791773,7.12301748 1.4110844,6.8468751 L6.12009753,4.1281251 C6.14061376,4.11628005 6.16137525,4.10524462 6.182345,4.09500888 Z" id="Combined-Shape" fill="#335EEA" opacity="0.3"></path>
        <path d="M9.85156673,3.2226499 L9.26236944,4.10644584 C9.11517039,4.32724441 9.1661011,4.62457583 9.37839459,4.78379594 L11,6 L10.0353553,12.7525126 C10.0130986,12.9083095 10.0654932,13.0654932 10.1767767,13.1767767 L11.6464466,14.6464466 C11.8417088,14.8417088 12.1582912,14.8417088 12.3535534,14.6464466 L13.8232233,13.1767767 C13.9345068,13.0654932 13.9869014,12.9083095 13.9646447,12.7525126 L13,6 L14.6216054,4.78379594 C14.8338989,4.62457583 14.8848296,4.32724441 14.7376306,4.10644584 L14.1484333,3.2226499 C14.0557004,3.08355057 13.8995847,3 13.7324081,3 L10.2675919,3 C10.1004153,3 9.94429962,3.08355057 9.85156673,3.2226499 Z" id="Path-86" fill="#335EEA"></path>
    </g>
</svg>

<svg width="24" height="24" viewBox="0 0 24 24" xmlns="http://www.w3.org/2000/svg"><g fill="none" fill-rule="evenodd"><path d="M0 0h24v24H0z"/><path d="M6.182 4.095A2.994 2.994 0 018.5 3h7c.933 0 1.767.426 2.317 1.094.022.01.043.022.064.034l4.709 2.719a1 1 0 01.366 1.366L21.3 11.082a1 1 0 01-1.366.366L18.5 10.62V19a1 1 0 01-1 1h-11a1 1 0 01-1-1v-8.38l-1.433.828a1 1 0 01-1.366-.366l-1.656-2.87a1 1 0 01.366-1.365l4.71-2.719c.02-.012.04-.023.061-.033z" fill="#335EEA" opacity=".3"/><path d="M9.852 3.223l-.59.883a.5.5 0 00.116.678L11 6l-.965 6.753a.5.5 0 00.142.424l1.47 1.47a.5.5 0 00.707 0l1.47-1.47a.5.5 0 00.14-.424L13 6l1.622-1.216a.5.5 0 00.116-.678l-.59-.883A.5.5 0 0013.732 3h-3.464a.5.5 0 00-.416.223z" fill="#335EEA"/></g></svg>
